X: 4982
T: Brendan O'Brien's
R: jig
M: 6/8
K: Dmajor
|:A|d2 d afa|afa afd|e2 A ecA|Ace ecA|
d2 d afd|dfa baf|e2 A ABc|1 dfe d2:|2 dfe d3||
g2 g bag|f2 d def|eAA ABA|ABc def|
g2 g bag|afd dfa|e2 A ABc|dfe d3||

